X: 30172
M: 3/8	% Actually 3/2, but there are only 6 16th notes per bar.
L: 1/16
K: G
|: A2 |\
d2f2a2 | gfed^c2 | e2g2b2 | agfed2 |\
d'^c'bagf | ^defgg2 | aA^GAB^c | "^D.C."d4 :|


